src/extras-openmoji/interaction/E104.svg

<?xml version="1.0" encoding="UTF-8"?>
<svg id="emoji" xmlns="http://www.w3.org/2000/svg" viewBox="0 0 72 72">
  <g id="grid">
    <path d="m68,4v64H4V4h64m4-4H0v72h72V0Z" fill="#b3b3b3"/>
    <path d="m12.923,10.9583h46.1539c1.0621,0,1.9231.861,1.9231,1.9231h0v46.1538c0,1.0621-.861,1.9231-1.9231,1.9231H12.9231c-1.0621,0-1.9231-.861-1.9231-1.9231h0V12.8813c0-1.062.861-1.923,1.923-1.923h0Z" fill="none" stroke="#00a5ff" stroke-miterlimit="10" stroke-width=".1"/>
    <rect x="16" y="4" width="40" height="64" rx="2.2537" ry="2.2537" fill="none" stroke="#00a5ff" stroke-miterlimit="10" stroke-width=".1"/>
    <rect x="4" y="16" width="64" height="40" rx="2.2537" ry="2.2537" fill="none" stroke="#00a5ff" stroke-miterlimit="10" stroke-width=".1"/>
    <circle cx="36" cy="36" r="29" fill="none" stroke="#00a5ff" stroke-miterlimit="10" stroke-width=".1"/>
  </g>
  <g id="color">
    <path d="m37.2971,16.7728h-2.472c-5.8763,0-10.6842,4.8079-10.6842,10.6842v16.9332c0,5.8763,4.8079,10.6842,10.6842,10.6842h2.472c5.8763,0,10.6842-4.8079,10.6842-10.6842v-16.9332c0-5.8763-4.8079-10.6842-10.6842-10.6842Z" fill="#d0cfce"/>
    <path d="m36.0611,22.1118h0c-1.1405,0-2.0737.9332-2.0737,2.0737v5.8343c0,1.1405.9332,2.0737,2.0737,2.0737h0c1.1405,0,2.0737-.9332,2.0737-2.0737v-5.8343c0-1.1405-.9332-2.0737-2.0737-2.0737Z" fill="#3f3f3f"/>
    <path d="m34.4985,18.0378c.5134.1268,1.015.2971,1.492.5256,2.6947,1.2911,5.0811,3.2229,5.3845,7.4867.3881,5.455-1.6305,15.6686-2.2795,20.8566-.4538,3.6277-2.248,5.3071-4.6299,7.2111-1.2013.9603,5.2663.8427,7.9297-.7139.2198-.1284.425-.2475.6177-.3589,2.4221-1.4003,3.9265-3.9684,3.9615-6.7659l.2561-20.468c.0131-1.0431-.1564-2.0869-.5666-3.0461-.8781-2.0531-3.0066-5.0079-7.9848-5.0095,0,0-6.7254-.3462-4.1807.2824Z" fill="#9b9b9a"/>
  </g>
  <g id="line">
    <path d="m38.8294,54.5013h-5.5367c-4.9688,0-9.0342-4.0654-9.0342-9.0342v-19.0871c0-4.9688,4.0654-9.0342,9.0342-9.0342h5.5367c4.9688,0,9.0342,4.0654,9.0342,9.0342v19.0871c0,4.9688-4.0654,9.0342-9.0342,9.0342Z" fill="none" stroke="#000" stroke-linecap="round" stroke-linejoin="round" stroke-width="2"/>
    <path d="m36.1449,32.1553h-.1677c-1.1161,0-2.0294-.9132-2.0294-2.0294v-6.0465c0-1.1161.9132-2.0294,2.0294-2.0294h.1677c1.1161,0,2.0294.9132,2.0294,2.0294v6.0465c0,1.1162-.9132,2.0294-2.0294,2.0294Z" fill="none" stroke="#000" stroke-linecap="round" stroke-linejoin="round" stroke-width="2"/>
    <line x1="41.3312" y1="60.0161" x2="36.1155" y2="65.2318" fill="none" stroke="#000" stroke-linecap="round" stroke-linejoin="round" stroke-width="2"/>
    <line x1="30.8574" y1="60.0161" x2="36.073" y2="65.2318" fill="none" stroke="#000" stroke-linecap="round" stroke-linejoin="round" stroke-width="2"/>
    <line x1="30.8574" y1="11.892" x2="36.073" y2="6.6763" fill="none" stroke="#000" stroke-linecap="round" stroke-linejoin="round" stroke-width="2"/>
    <line x1="41.3312" y1="11.892" x2="36.1155" y2="6.6763" fill="none" stroke="#000" stroke-linecap="round" stroke-linejoin="round" stroke-width="2"/>
  </g>
</svg>

<svg id="emoji" viewBox="0 0 72 72" xmlns="http://www.w3.org/2000/svg">
  <g id="grid">
    <path fill="#b3b3b3" d="M68,4V68H4V4H68m4-4H0V72H72V0Z"/>
    <path fill="none" stroke="#00a5ff" stroke-miterlimit="10" stroke-width="0.1" d="M12.923,10.9583H59.0769A1.9231,1.9231,0,0,1,61,12.8814V59.0352a1.9231,1.9231,0,0,1-1.9231,1.9231H12.9231A1.9231,1.9231,0,0,1,11,59.0352V12.8813A1.923,1.923,0,0,1,12.923,10.9583Z"/>
    <rect x="16" y="4" rx="2.2537" width="40" height="64" fill="none" stroke="#00a5ff" stroke-miterlimit="10" stroke-width="0.1"/>
    <rect x="16" y="4" rx="2.2537" width="40" height="64" transform="translate(72) rotate(90)" fill="none" stroke="#00a5ff" stroke-miterlimit="10" stroke-width="0.1"/>
    <circle cx="36" cy="36" r="29" fill="none" stroke="#00a5ff" stroke-miterlimit="10" stroke-width="0.1"/>
  </g>
  <g id="color">
    <path fill="#D0CFCE" stroke="none" d="M37.2971,16.7728h-2.472c-5.8763,0-10.6842,4.8079-10.6842,10.6842v16.9332 c0,5.8763,4.8079,10.6842,10.6842,10.6842h2.472c5.8763,0,10.6842-4.8079,10.6842-10.6842V27.457 C47.9813,21.5807,43.1734,16.7728,37.2971,16.7728z"/>
    <path fill="#3F3F3F" stroke="none" d="M36.0611,22.1118L36.0611,22.1118c-1.1405,0-2.0737,0.9332-2.0737,2.0737v5.8343 c0,1.1405,0.9332,2.0737,2.0737,2.0737h0c1.1405,0,2.0737-0.9332,2.0737-2.0737v-5.8343 C38.1348,23.045,37.2016,22.1118,36.0611,22.1118z"/>
    <path fill="#9B9B9A" stroke="none" d="M35.1358,18.1769c3.0267,1.2986,5.904,3.1629,6.2392,7.8732c0.3881,5.455-1.6305,15.6686-2.2795,20.8566 c-0.4538,3.6277-2.248,5.3071-4.6299,7.2111c-1.2013,0.9603,5.2663,0.8427,7.9297-0.7139 c2.2852-1.3355,4.4994-3.6288,4.5264-2.9039l0.3229-25.8045c0,0-0.9367-6.9377-8.5654-6.9401 C38.6792,17.7555,31.0272,17.3615,35.1358,18.1769z"/>
  </g>
  <g id="hair"/>
  <g id="skin"/>
  <g id="skin-shadow"/>
  <g id="line">
    <path fill="none" stroke="#000000" stroke-linecap="round" stroke-linejoin="round" stroke-miterlimit="10" stroke-width="2" d="M38.8294,54.5013h-5.5367c-4.9688,0-9.0342-4.0654-9.0342-9.0342V26.38c0-4.9688,4.0654-9.0342,9.0342-9.0342h5.5367 c4.9688,0,9.0342,4.0654,9.0342,9.0342v19.0871C47.8636,50.4359,43.7982,54.5013,38.8294,54.5013z"/>
    <path fill="none" stroke="#000000" stroke-linecap="round" stroke-linejoin="round" stroke-miterlimit="10" stroke-width="2" d="M36.1449,32.1553h-0.1677c-1.1161,0-2.0294-0.9132-2.0294-2.0294v-6.0465c0-1.1161,0.9132-2.0294,2.0294-2.0294h0.1677 c1.1161,0,2.0294,0.9132,2.0294,2.0294v6.0465C38.1743,31.2421,37.2611,32.1553,36.1449,32.1553z"/>
    <line x1="41.3312" x2="36.1155" y1="60.0161" y2="65.2318" fill="none" stroke="#000000" stroke-linecap="round" stroke-linejoin="round" stroke-miterlimit="10" stroke-width="2"/>
    <line x1="30.8574" x2="36.073" y1="60.0161" y2="65.2318" fill="none" stroke="#000000" stroke-linecap="round" stroke-linejoin="round" stroke-miterlimit="10" stroke-width="2"/>
    <line x1="30.8574" x2="36.073" y1="11.892" y2="6.6763" fill="none" stroke="#000000" stroke-linecap="round" stroke-linejoin="round" stroke-miterlimit="10" stroke-width="2"/>
    <line x1="41.3312" x2="36.1155" y1="11.892" y2="6.6763" fill="none" stroke="#000000" stroke-linecap="round" stroke-linejoin="round" stroke-miterlimit="10" stroke-width="2"/>
  </g>
</svg>
